X: 15
T:Pasacorredoiras de Vilar de Enfesta
M:2/4
L:1/8
Q:270
C:Trad
R:Pasacorredoiras
B:Os Segredos da Gaita. FOXO
K:C
cB |: AG AB | cG cB | AG FE | "tr." D2 cB | AG AB |
cG CD | _ED CB, |1 C2 cB :|2 C2 CE |: ED FE | "tr." D2 DF |
FE AG | E2 CE | ED FE | "tr."D2 FF | EE DD |1 C2 CE :|2 C2||

